client/src/assets/icons/car.svg

<svg width="58" height="58" viewBox="0 0 58 58" fill="none" xmlns="http://www.w3.org/2000/svg">
<path d="M38.6667 14.5L45.9167 24.1667H50.75C53.4325 24.1667 55.5833 26.3175 55.5833 29V36.25H50.75C50.75 38.1728 49.9862 40.0169 48.6265 41.3765C47.2669 42.7362 45.4228 43.5 43.5 43.5C41.5772 43.5 39.7331 42.7362 38.3735 41.3765C37.0138 40.0169 36.25 38.1728 36.25 36.25H21.75C21.75 38.1728 20.9862 40.0169 19.6265 41.3765C18.2669 42.7362 16.4228 43.5 14.5 43.5C12.5772 43.5 10.7331 42.7362 9.37348 41.3765C8.01384 40.0169 7.25 38.1728 7.25 36.25H2.41667V29C2.41667 26.3175 4.5675 24.1667 7.25 24.1667L14.5 14.5H38.6667ZM25.375 18.125H16.3125L11.745 24.1667H25.375V18.125ZM29 18.125V24.1667H41.4217L36.8542 18.125H29ZM14.5 32.625C13.5386 32.625 12.6166 33.0069 11.9367 33.6867C11.2569 34.3666 10.875 35.2886 10.875 36.25C10.875 37.2114 11.2569 38.1334 11.9367 38.8133C12.6166 39.4931 13.5386 39.875 14.5 39.875C15.4614 39.875 16.3834 39.4931 17.0633 38.8133C17.7431 38.1334 18.125 37.2114 18.125 36.25C18.125 35.2886 17.7431 34.3666 17.0633 33.6867C16.3834 33.0069 15.4614 32.625 14.5 32.625ZM43.5 32.625C42.5386 32.625 41.6166 33.0069 40.9367 33.6867C40.2569 34.3666 39.875 35.2886 39.875 36.25C39.875 37.2114 40.2569 38.1334 40.9367 38.8133C41.6166 39.4931 42.5386 39.875 43.5 39.875C44.4614 39.875 45.3834 39.4931 46.0633 38.8133C46.7431 38.1334 47.125 37.2114 47.125 36.25C47.125 35.2886 46.7431 34.3666 46.0633 33.6867C45.3834 33.0069 44.4614 32.625 43.5 32.625Z" fill="#011034"/>
</svg>

<svg xmlns="http://www.w3.org/2000/svg" width="58" height="58" fill="none" viewBox="0 0 58 58">
  <path fill="#011034" d="m38.667 14.5 7.25 9.667h4.833A4.817 4.817 0 0 1 55.583 29v7.25H50.75a7.25 7.25 0 0 1-14.5 0h-14.5a7.25 7.25 0 1 1-14.5 0H2.417V29a4.817 4.817 0 0 1 4.833-4.833L14.5 14.5h24.167Zm-13.292 3.625h-9.063l-4.567 6.042h13.63v-6.042Zm3.625 0v6.042h12.422l-4.568-6.042H29Zm-14.5 14.5a3.625 3.625 0 1 0 0 7.25 3.625 3.625 0 0 0 0-7.25Zm29 0a3.625 3.625 0 1 0 0 7.25 3.625 3.625 0 0 0 0-7.25Z"/>
</svg>
